Gurmukhi/0A3E.svg

<svg enable-background="new 0 0 336 592" viewBox="0 0 336 592" xmlns="http://www.w3.org/2000/svg"><path d="m247.150864 195.115326c19.282364.13594 38.083603.320557 56.885147.353653 2.555267.004486 4.036957.767029 4.886566 3.18576 1.378296 3.924073 2.990143 7.76558 4.40448 11.677719 1.657928 4.585831.302978 6.700913-4.559296 6.769898-8.328338.118149-16.669464.276566-24.98584-.060226-4.90686-.198716-6.590759 1.163818-6.553772 6.386184.238434 33.651703-.022277 67.306977.228058 100.958527.058686 7.890625-2.749725 9.257294-9.189728 5.389679-3.846954-2.310364-7.835998-4.472748-11.975524-6.182801-4.288514-1.771545-5.257386-4.763183-5.242279-9.040283.10527-29.821106.020233-59.642837.023147-89.464355.000778-7.951615.043945-7.950241-7.956116-7.939209-4.498214.006195-9.008163-.191773-13.490966.072616-3.622971.213669-5.536118-1.283508-6.626389-4.602066-1.193832-3.633728-2.783707-7.135879-4.028595-10.754669-1.590546-4.623642-.230209-6.669555 4.741928-6.698028 7.651856-.043839 15.305557.742584 23.439179-.052399z"/><path d="m195.969406 263.813416c3.805679-2.681672 7.403702-2.959565 10.825165-.270936 2.627991 2.065033 4.014542 4.847168 3.117645 8.294129-.896454 3.445221-2.877594 5.905029-6.602051 6.548859-3.582412.619323-6.578872-.378571-8.651947-3.432343-2.617935-3.856476-1.791336-7.482452 1.311188-11.139709z"/><path d="m184.83345 334.758606c7.020722-.396027 11.258026 2.639832 11.303421 7.756561.045777 5.161011-4.213668 9.166931-9.376068 8.735016-4.209015-.352112-6.679397-2.972534-7.516266-6.820587-.973724-4.477325 1.171769-7.649262 5.588913-9.67099z"/><path d="m84.952255 275.826569c-3.647384 3.300964-7.463493 3.701202-11.153656 1.27005-2.907676-1.915619-4.429725-4.824646-3.475021-8.574189.905876-3.5578 3.102264-5.832885 6.635612-6.60614 3.365593-.736572 6.239678.427246 8.353951 3.112854 2.738663 3.47873 2.36042 7.025879-.360886 10.797425z"/><path d="m67.296356 289.291443c7.139511-4.047669 13.5607-1.584046 14.119499 5.032593.318421 3.770385-.672508 6.9169-4.365982 8.613647-3.453102 1.586365-6.788536 1.438141-9.598365-1.348419-2.877144-2.853302-3.585076-6.228027-1.798165-9.964935.35109-.734223.900559-1.373597 1.643013-2.332886z"/><path d="m201.878632 302.197327c-3.755829-3.633637-4.327103-7.531342-1.752289-11.545899 2.086578-3.253235 5.334503-4.456482 9.136947-3.398865 4.853104 1.349762 7.315766 6.24405 5.713135 11.086945-1.660995 5.019287-6.713089 6.63916-13.097793 3.857819z"/><path d="m181.885513 254.322174c-3.788604-5.141327-3.51326-9.977936.434006-12.988892 3.752899-2.862686 9.172669-2.1501 12.015625 1.641572 2.706635 3.609817 2.149323 7.240768-.427139 10.562484-2.612503 3.368119-6.779068 3.62764-12.022492.784836z"/><path d="m208.505249 315.738037c2.324341 5.293244 1.622528 9.364319-1.964661 11.754578-3.541809 2.360077-7.144531 2.473022-10.470504-.49823-3.664109-3.273346-3.988495-8.43454-.828614-11.990906 3.500199-3.939362 8.324616-3.783173 13.263779.734558z"/><path d="m173.362885 236.185883c-3.099793 5.937957-7.626175 7.667724-12.247681 5.030914-4.193497-2.392624-5.528687-7.430481-3.058777-11.627243 2.314514-3.932709 6.053345-4.799698 9.941803-3.591782 4.580109 1.42276 6.355926 5.020966 5.364655 10.188111z"/><path d="m81.944778 328.286133c-5.66893 1.400665-9.653938-.414581-11.328521-4.850769-1.48893-3.944397.523033-8.708344 4.424553-10.476441 4.126091-1.869873 8.587013-.502502 10.845428 3.324372 2.552574 4.325317 1.401726 8.143768-3.94146 12.002838z"/><path d="m93.651337 334.592621c5.534362 1.557464 8.339622 5.399444 7.44725 9.710785-.910912 4.40094-5.217697 7.507049-9.573669 6.904663-3.958298-.547363-7.285225-4.368561-7.21624-8.288269.091949-5.224213 2.973442-7.909455 9.342659-8.327179z"/><path d="m159.861694 363.313995c-3.836395-5.006622-4.007644-8.934173-.589935-12.286621 3.129288-3.069549 6.867432-3.223602 10.561844-1.261596 3.558716 1.889984 4.838959 6.476654 3.270767 10.473449-1.967682 5.014984-7.135635 6.350586-13.242676 3.074768z"/><path d="m100.594193 244.850769c1.386398 4.55333.221008 8.064545-3.431672 10.297958-3.208099 1.961564-6.691818 1.855118-9.772033-.605468-3.118759-2.491379-3.75116-5.791397-2.519211-9.422882 1.037964-3.059693 3.195587-5.02472 6.514191-5.388764 4.052024-.444473 7.132843 1.061356 9.208725 5.119156z"/><path d="m146.393158 234.196838c-3.524506 3.019959-7.052963 3.769806-10.752914 1.338654-3.017746-1.98291-4.510407-4.857575-3.833359-8.529602.670761-3.637909 3.017593-5.794113 6.519974-6.736496 3.458541-.930588 6.311004.300293 8.354553 2.987823 2.612762 3.436097 2.26033 7.089325-.288254 10.939621z"/><path d="m142.978943 370.214233c-5.810455.950623-9.732163-1.123535-11.033585-5.53955-1.251938-4.248139 1.168579-8.800873 5.521408-10.385163 3.773987-1.373565 8.289185.457001 10.144333 4.112824 2.13533 4.207947.537476 8.604187-4.632156 11.811889z"/><path d="m106.673378 233.138c1.694519-6.225753 5.265717-8.557128 10.603073-7.332839 4.049957.928985 6.674416 5.146179 5.960663 9.578094-.680412 4.224915-4.520348 7.183899-8.96772 6.910355-4.481949-.275666-7.062813-3.237854-7.596016-9.15561z"/><path d="m116.665741 348.750732c4.587891 1.301148 6.772438 4.086792 6.626366 8.463135-.130417 3.907257-2.225777 6.592072-5.892113 7.725281-3.671341 1.134796-6.886734.071289-9.242973-3.051575-2.116555-2.805145-2.071778-5.94516-.627488-8.91156 1.726334-3.545654 4.89943-4.703766 9.136208-4.225281z"/></svg>

<svg version="1.1" id="Layer_1" xmlns="http://www.w3.org/2000/svg" xmlns:xlink="http://www.w3.org/1999/xlink" x="0px" y="0px"
	 width="100%" viewBox="0 0 336 592" enable-background="new 0 0 336 592" xml:space="preserve">
<path fill="#000000" opacity="1.000000" stroke="none" 
	d="
M247.150864,195.115326 
	C266.433228,195.251266 285.234467,195.435883 304.036011,195.468979 
	C306.591278,195.473465 308.072968,196.236008 308.922577,198.654739 
	C310.300873,202.578812 311.912720,206.420319 313.327057,210.332458 
	C314.984985,214.918289 313.630035,217.033371 308.767761,217.102356 
	C300.439423,217.220505 292.098297,217.378922 283.781921,217.042130 
	C278.875061,216.843414 277.191162,218.205948 277.228149,223.428314 
	C277.466583,257.080017 277.205872,290.735291 277.456207,324.386841 
	C277.514893,332.277466 274.706482,333.644135 268.266479,329.776520 
	C264.419525,327.466156 260.430481,325.303772 256.290955,323.593719 
	C252.002441,321.822174 251.033569,318.830536 251.048676,314.553436 
	C251.153946,284.732330 251.068909,254.910599 251.071823,225.089081 
	C251.072601,217.137466 251.115768,217.138840 243.115707,217.149872 
	C238.617493,217.156067 234.107544,216.958099 229.624741,217.222488 
	C226.001770,217.436157 224.088623,215.938980 222.998352,212.620422 
	C221.804520,208.986694 220.214645,205.484543 218.969757,201.865753 
	C217.379211,197.242111 218.739548,195.196198 223.711685,195.167725 
	C231.363541,195.123886 239.017242,195.910309 247.150864,195.115326 
z"/>
<path fill="#000000" opacity="1.000000" stroke="none" 
	d="
M195.969406,263.813416 
	C199.775085,261.131744 203.373108,260.853851 206.794571,263.542480 
	C209.422562,265.607513 210.809113,268.389648 209.912216,271.836609 
	C209.015762,275.281830 207.034622,277.741638 203.310165,278.385468 
	C199.727753,279.004791 196.731293,278.006897 194.658218,274.953125 
	C192.040283,271.096649 192.866882,267.470673 195.969406,263.813416 
z"/>
<path fill="#000000" opacity="1.000000" stroke="none" 
	d="
M184.833450,334.758606 
	C191.854172,334.362579 196.091476,337.398438 196.136871,342.515167 
	C196.182648,347.676178 191.923203,351.682098 186.760803,351.250183 
	C182.551788,350.898071 180.081406,348.277649 179.244537,344.429596 
	C178.270813,339.952271 180.416306,336.780334 184.833450,334.758606 
z"/>
<path fill="#000000" opacity="1.000000" stroke="none" 
	d="
M84.952255,275.826569 
	C81.304871,279.127533 77.488762,279.527771 73.798599,277.096619 
	C70.890923,275.181000 69.368874,272.271973 70.323578,268.522430 
	C71.229454,264.964630 73.425842,262.689545 76.959190,261.916290 
	C80.324783,261.179718 83.198868,262.343536 85.313141,265.029144 
	C88.051804,268.507874 87.673561,272.055023 84.952255,275.826569 
z"/>
<path fill="#000000" opacity="1.000000" stroke="none" 
	d="
M67.296356,289.291443 
	C74.435867,285.243774 80.857056,287.707397 81.415855,294.324036 
	C81.734276,298.094421 80.743347,301.240936 77.049873,302.937683 
	C73.596771,304.524048 70.261337,304.375824 67.451508,301.589264 
	C64.574364,298.735962 63.866432,295.361237 65.653343,291.624329 
	C66.004433,290.890106 66.553902,290.250732 67.296356,289.291443 
z"/>
<path fill="#000000" opacity="1.000000" stroke="none" 
	d="
M201.878632,302.197327 
	C198.122803,298.563690 197.551529,294.665985 200.126343,290.651428 
	C202.212921,287.398193 205.460846,286.194946 209.263290,287.252563 
	C214.116394,288.602325 216.579056,293.496613 214.976425,298.339508 
	C213.315430,303.358795 208.263336,304.978668 201.878632,302.197327 
z"/>
<path fill="#000000" opacity="1.000000" stroke="none" 
	d="
M181.885513,254.322174 
	C178.096909,249.180847 178.372253,244.344238 182.319519,241.333282 
	C186.072418,238.470596 191.492188,239.183182 194.335144,242.974854 
	C197.041779,246.584671 196.484467,250.215622 193.908005,253.537338 
	C191.295502,256.905457 187.128937,257.164978 181.885513,254.322174 
z"/>
<path fill="#000000" opacity="1.000000" stroke="none" 
	d="
M208.505249,315.738037 
	C210.829590,321.031281 210.127777,325.102356 206.540588,327.492615 
	C202.998779,329.852692 199.396057,329.965637 196.070084,326.994385 
	C192.405975,323.721039 192.081589,318.559845 195.241470,315.003479 
	C198.741669,311.064117 203.566086,311.220306 208.505249,315.738037 
z"/>
<path fill="#000000" opacity="1.000000" stroke="none" 
	d="
M173.362885,236.185883 
	C170.263092,242.123840 165.736710,243.853607 161.115204,241.216797 
	C156.921707,238.824173 155.586517,233.786316 158.056427,229.589554 
	C160.370941,225.656845 164.109772,224.789856 167.998230,225.997772 
	C172.578339,227.420532 174.354156,231.018738 173.362885,236.185883 
z"/>
<path fill="#000000" opacity="1.000000" stroke="none" 
	d="
M81.944778,328.286133 
	C76.275848,329.686798 72.290840,327.871552 70.616257,323.435364 
	C69.127327,319.490967 71.139290,314.727020 75.040810,312.958923 
	C79.166901,311.089050 83.627823,312.456421 85.886238,316.283295 
	C88.438812,320.608612 87.287964,324.427063 81.944778,328.286133 
z"/>
<path fill="#000000" opacity="1.000000" stroke="none" 
	d="
M93.651337,334.592621 
	C99.185699,336.150085 101.990959,339.992065 101.098587,344.303406 
	C100.187675,348.704346 95.880890,351.810455 91.524918,351.208069 
	C87.566620,350.660706 84.239693,346.839508 84.308678,342.919800 
	C84.400627,337.695587 87.282120,335.010345 93.651337,334.592621 
z"/>
<path fill="#000000" opacity="1.000000" stroke="none" 
	d="
M159.861694,363.313995 
	C156.025299,358.307373 155.854050,354.379822 159.271759,351.027374 
	C162.401047,347.957825 166.139191,347.803772 169.833603,349.765778 
	C173.392319,351.655762 174.672562,356.242432 173.104370,360.239227 
	C171.136688,365.254211 165.968735,366.589813 159.861694,363.313995 
z"/>
<path fill="#000000" opacity="1.000000" stroke="none" 
	d="
M100.594193,244.850769 
	C101.980591,249.404099 100.815201,252.915314 97.162521,255.148727 
	C93.954422,257.110291 90.470703,257.003845 87.390488,254.543259 
	C84.271729,252.051880 83.639328,248.751862 84.871277,245.120377 
	C85.909241,242.060684 88.066864,240.095657 91.385468,239.731613 
	C95.437492,239.287140 98.518311,240.792969 100.594193,244.850769 
z"/>
<path fill="#000000" opacity="1.000000" stroke="none" 
	d="
M146.393158,234.196838 
	C142.868652,237.216797 139.340195,237.966644 135.640244,235.535492 
	C132.622498,233.552582 131.129837,230.677917 131.806885,227.005890 
	C132.477646,223.367981 134.824478,221.211777 138.326859,220.269394 
	C141.785400,219.338806 144.637863,220.569687 146.681412,223.257217 
	C149.294174,226.693314 148.941742,230.346542 146.393158,234.196838 
z"/>
<path fill="#000000" opacity="1.000000" stroke="none" 
	d="
M142.978943,370.214233 
	C137.168488,371.164856 133.246780,369.090698 131.945358,364.674683 
	C130.693420,360.426544 133.113937,355.873810 137.466766,354.289520 
	C141.240753,352.915955 145.755951,354.746521 147.611099,358.402344 
	C149.746429,362.610291 148.148575,367.006531 142.978943,370.214233 
z"/>
<path fill="#000000" opacity="1.000000" stroke="none" 
	d="
M106.673378,233.138000 
	C108.367897,226.912247 111.939095,224.580872 117.276451,225.805161 
	C121.326408,226.734146 123.950867,230.951340 123.237114,235.383255 
	C122.556702,239.608170 118.716766,242.567154 114.269394,242.293610 
	C109.787445,242.017944 107.206581,239.055756 106.673378,233.138000 
z"/>
<path fill="#000000" opacity="1.000000" stroke="none" 
	d="
M116.665741,348.750732 
	C121.253632,350.051880 123.438179,352.837524 123.292107,357.213867 
	C123.161690,361.121124 121.066330,363.805939 117.399994,364.939148 
	C113.728653,366.073944 110.513260,365.010437 108.157021,361.887573 
	C106.040466,359.082428 106.085243,355.942413 107.529533,352.976013 
	C109.255867,349.430359 112.428963,348.272247 116.665741,348.750732 
z"/>
</svg>
